!!!COM: Anonymous
!!!OTL@@POL: Zginąć nie mogę
!!!TXO: Polish
!!!ODT: 
!!!GTL: Hymnbook L 1642(a)
!!!ARL: Biblioteka Diecezjalna w Sandomierzu 
!!!voices:	4
**kern	**text	**kern	**text	**kern	**text	**kern	**text
*staff4	*staff4	*staff3	*staff3	*staff2	*staff2	*staff1	*staff1
*I"Basso	*	*I"Canto III	*	*I"Canto II	*	*I"Canto I	*
=1-	=1-	=1-	=1-	=1-	=1-	=1-	=1-
*clefF4	*	*clefG2	*	*clefG2	*	*clefG2	*
*k[]	*	*k[]	*	*k[]	*	*k[]	*
*M3/2	*	*M3/2	*	*M3/2	*	*M3/2	*
2AA/	Zgi-	2a/	Zgi-	2cc\	Zgi-	2ee\	Zgi-
2AA/	-nąć	2e/	-nąć	2a/	-nąć	2cc\	-nąć
2E\	nie	2e/	nie	2g#/	nie	2b\	nie
=2	=2	=2	=2	=2	=2	=2	=2
1AA	mog-	1e	mog-	1a	mog-	1a	mog-
2AA/	-gę	2e/	-gę	2a/	-gę	2a/	-gę
=3	=3	=3	=3	=3	=3	=3	=3
2.A\	lu-	2.a/	lu-	2.cc#\	lu-	2.ee\	lu-
4G\	-bo	4a/	-bo	4cc#\	-bo	4ee\	-bo
2F#\	mnie	2b\	mnie	2dd\	mnie	2ff#\	mnie
=4	=4	=4	=4	=4	=4	=4	=4
2E\	stro-	2b\	stro-	2ee\	stro-	2gg\	stro-
1BB	-fu-	1b	-fu-	1dd#	-fu-	1ff#i	-fu-
=5	=5	=5	=5	=5	=5	=5	=5
1.E	-je,	1.b	-je,	1.ee	-je,	1.ee	-je,
=6	=6	=6	=6	=6	=6	=6	=6
2C/	złe	2g/	złe	2ee\	złe	2gg\	złe
2F\	ży-	2a/	ży-	2dd\	ży-	2ff\	ży-
2G\	-cie	2g/	-cie	2b\	-cie	2dd\	-cie
=7	=7	=7	=7	=7	=7	=7	=7
1C	mo-	1g	mo-	1cc	mo-	1ee	mo-
2C/	-je	2g/	-je	2cc\	-je	2ee\	-je
=8	=8	=8	=8	=8	=8	=8	=8
2.G\	po-	2.g/	po-	2.b\	po-	2.dd\	po-
4F\	-pra-	4g/	-pra-	4b\	-pra-	4dd\	-pra-
2E\	-wy	2a/	-wy	2cc#\	-wy	2ee\	-wy
=9	=9	=9	=9	=9	=9	=9	=9
2D\	nie	2a/	nie	2dd\	nie	2ff\	nie
1AA	czu-	1a	czu-	1cc#	czu-	1ee	czu-
=10	=10	=10	=10	=10	=10	=10	=10
1.D	-je,	1.a	-je,	1.dd	-je,	1.dd	-je,
=11	=11	=11	=11	=11	=11	=11	=11
2D\	Bo	2d/	Bo	2f#/	Bo	2a/	Bo
2BB/	Pan-	2d/	Pan-	2b\	Pan-	2dd\	Pan-
4C/	-no	2e/	-no	2a/	-no	2cc\	-no
4D\	.	.	.	.	.	.	.
=12	=12	=12	=12	=12	=12	=12	=12
1E	ni-	1e	ni-	1g#	ni-	1b	ni-
2E\	-gdy	2e/	-gdy	2g#/	-gdy	2b\	-gdy
=13	=13	=13	=13	=13	=13	=13	=13
2.AA/	nie	2.e/	nie	2.a/	nie	2.cc\	nie
4GG/	był	4g/	był	4b\	był	4dd\	był
2C/	za-	2g/	za-	2cc\	za-	2ee\	za-
=14	=14	=14	=14	=14	=14	=14	=14
2F\	-wsty	2a/	-wsty	4dd\	-wsty	2ff\	-wsty
.	.	.	.	4cc\	.	.	.
1G	dzo-	1g	dzo-	1b	dzo-	1dd	dzo-
=15	=15	=15	=15	=15	=15	=15	=15
1.C	-ny,	1.g	-ny,	1.cc	-ny,	1.cc	-ny,
=16	=16	=16	=16	=16	=16	=16	=16
2G\	kto-	2g/	kto-	2b\	kto-	2dd\	kto-
2E\	-kol-	2g/	-kol-	2cc#\	-kol-	2ee\	-kol-
2D\	-wiek	2a/	-wiek	2dd\	-wiek	2ff\	-wiek
=17	=17	=17	=17	=17	=17	=17	=17
1AA	się	1a	się	1cc#	się	1ee	się
2D\	miał	2a/	miał	2dd\	miał	2dd\	miał
=18	=18	=18	=18	=18	=18	=18	=18
2.C#/	do	2.e/	do	2.ee\	do	2.gg\	do
4C#/	two-	4e/	two-	4cc#i\	two-	4ee\	two-
2D\	-jej	2f/	-jej	4dd\	-jej	4ff\	-jej
.	.	.	.	4cc#\	.	4ee\	.
=19	=19	=19	=19	=19	=19	=19	=19
2AA/	o-	2e/	o-	4b\	o-	4dd\	o-
.	.	.	.	4a/	.	4cc\	.
1E	-bro-	1e	-bro-	1g#	-bro-	1b	-bro-
=20	=20	=20	=20	=20	=20	=20	=20
1.AA	-ny.	1.e	-ny.	1.a	-ny.	1.a	-ny.
==	==	==	==	==	==	==	==
*-	*-	*-	*-	*-	*-	*-	*-
!!!GTL: Hymnbook L 1642(a)
!!!EFL: 33/34
!!!YEM: Creative Commons CC/BY/NC/SA 4.0
!!!ENC: Marcin Konik
!!!END: 2015-01-22 
!!!EED: Marcin Konik
!!!EEV: 
!!!ONB: Translated from MusicXML and edited by Marcin Konik
!!!CharacterEncoding: utf-8
!!!RDF**kern: i=editorial accidental
!!muse2ps: z14jc180F
!!title: @{OTL}, @{GTL}: @{pag}, ed. @{ENC}
